X: 9019
T: Da Blue Yowe
R: reel
M: 4/4
K: Dmajor
g2|afdf e<de<d|B<Be<d B2 Ag|afdf e<d e2|fgfe d2:|
Ac|d2 fd edBA|d2 ed B2 Ac|d2 fd ed e2|fgfe d2:|

